X: 166
M:4/4
L:1/8
Q:160
K:C
|: f2 f g>fe|f a2 g2 e|f2 f g>fe|f a2 g2 e|fga g>fe|ded fga| A3 c3|d>ed ^cA2:|

